; generated by PrusaSlicer 2.5.0+MacOS-x64 on 2023-03-15 at 18:36:36 UTC

; 

; external perimeters extrusion width = 0.45mm
; perimeters extrusion width = 0.45mm
; infill extrusion width = 0.45mm
; solid infill extrusion width = 0.45mm
; top infill extrusion width = 0.40mm
; support material extrusion width = 0.35mm
; first layer extrusion width = 0.42mm

M107
;TYPE:Custom
; START_GCODE

T0 ; Select Titan extruder
M220 S100 ; Set feedmultiply back to 100percent

G90 ; Absolute positioning
M83; Relative Extruder

G28 ; Home all axes

M190 S55 ; Set and wait - bed temperature
M104 S220

G32 ; Probe Z and calculate Z plane
G29 ; Mesh bed probe

G1009 ; Go ARC to purge end

G92 E0 ; Zero extruder
G21 ; set units to millimeters
G90 ; use absolute coordinates
M83 ; use relative distances for extrusion
; FILAMENT_START_GCODE
M107
;LAYER_CHANGE
;Z:0.2
;HEIGHT:0.2
; BEFORE_LAYER_CHANGE
;0.2
G92 E0

G1 E-4 F1800
G1 Z.2 F9000
; AFTER_LAYER_CHANGE
;0.2
G1 Z.4
G1 X34.619 Y0
G1 Z.2
G1 E4 F1800
M204 P1000
;TYPE:Skirt/Brim
;WIDTH:0.42
G1 F1200
G1 X34.619 Y40.005 E1.25433
G1 X34.225 Y41.588 E.05115
G1 X33.135 Y42.802 E.05115
G1 X31.242 Y43.382 E.06207
G1 X-31.242 Y43.382 E1.95914
G1 X-32.825 Y42.988 E.05115
G1 X-34.039 Y41.898 E.05115
G1 X-34.619 Y40.005 E.06207
G1 X-34.619 Y-40.005 E2.50866
G1 X-34.225 Y-41.588 E.05115
G1 X-33.135 Y-42.802 E.05115
G1 X-31.242 Y-43.382 E.06207
G1 X31.242 Y-43.382 E1.95914
G1 X32.825 Y-42.988 E.05115
G1 X34.039 Y-41.898 E.05115
G1 X34.619 Y-40.005 E.06207
G1 X34.619 Y-.06 E1.25245
M204 P2000
G1 E-3.6 F1800
;WIPE_START
G1 F7200
G1 X34.619 Y1.54 E-.38
;WIPE_END
G1 E-.02 F1800
G1 Z.4 F9000
G1 X30.655 Y-39.418
G1 Z.2
G1 E4 F1800
M204 P1000
;TYPE:Perimeter
;WIDTH:0.419999
G1 F1200
G1 X30.655 Y39.418 E2.47184
G1 X-30.655 Y39.418 E1.92232
G1 X-30.655 Y-39.418 E2.47184
G1 X30.595 Y-39.418 E1.92044
M204 P2000
G1 X31.032 Y-39.795 F9000
M204 P1000
;TYPE:External perimeter
G1 F1200
G1 X31.032 Y39.795 E2.49548
G1 X-31.032 Y39.795 E1.94597
G1 X-31.032 Y-39.795 E2.49548
G1 X30.972 Y-39.795 E1.94409
M204 P2000
G1 X30.944 Y-39.405 F9000
G1 X29.779 Y-39.305
M204 P1000
;TYPE:Solid infill
;WIDTH:0.420138
G1 F1200
G1 X30.372 Y-38.712 E.0263
G1 X30.372 Y-38.178 E.01673
G1 X29.415 Y-39.135 E.04244
G1 X28.882 Y-39.135 E.01673
G1 X30.372 Y-37.645 E.0661
G1 X30.372 Y-37.112 E.01673
G1 X28.349 Y-39.135 E.08976
G1 X27.815 Y-39.135 E.01673
G1 X30.372 Y-36.578 E.11343
G1 X30.372 Y-36.045 E.01673
G1 X27.282 Y-39.135 E.13709
G1 X26.748 Y-39.135 E.01673
G1 X30.372 Y-35.511 E.16075
G1 X30.372 Y-34.978 E.01673
G1 X26.215 Y-39.135 E.18442
G1 X25.681 Y-39.135 E.01673
G1 X30.372 Y-34.444 E.20808
G1 X30.372 Y-33.911 E.01673
G1 X25.148 Y-39.135 E.23174
G1 X24.614 Y-39.135 E.01673
G1 X30.372 Y-33.377 E.25541
G1 X30.372 Y-32.844 E.01673
G1 X24.081 Y-39.135 E.27907
G1 X23.547 Y-39.135 E.01673
G1 X30.372 Y-32.31 E.30273
G1 X30.372 Y-31.777 E.01673
G1 X23.014 Y-39.135 E.3264
G1 X22.48 Y-39.135 E.01673
G1 X30.372 Y-31.243 E.35006
G1 X30.372 Y-30.71 E.01673
G1 X21.947 Y-39.135 E.37372
G1 X21.413 Y-39.135 E.01673
G1 X30.372 Y-30.176 E.39739
G1 X30.372 Y-29.643 E.01673
G1 X20.88 Y-39.135 E.42105
G1 X20.347 Y-39.135 E.01673
G1 X30.372 Y-29.11 E.44471
G1 X30.372 Y-28.576 E.01673
G1 X19.813 Y-39.135 E.46838
G1 X19.28 Y-39.135 E.01673
G1 X30.372 Y-28.043 E.49204
G1 X30.372 Y-27.509 E.01673
G1 X18.746 Y-39.135 E.51571
G1 X18.213 Y-39.135 E.01673
G1 X30.372 Y-26.976 E.53937
G1 X30.372 Y-26.442 E.01673
G1 X17.679 Y-39.135 E.56303
G1 X17.146 Y-39.135 E.01673
G1 X30.372 Y-25.909 E.5867
G1 X30.372 Y-25.375 E.01673
G1 X16.612 Y-39.135 E.61036
G1 X16.079 Y-39.135 E.01673
G1 X30.372 Y-24.842 E.63402
G1 X30.372 Y-24.308 E.01673
G1 X15.545 Y-39.135 E.65769
G1 X15.012 Y-39.135 E.01673
G1 X30.372 Y-23.775 E.68135
G1 X30.372 Y-23.241 E.01673
G1 X14.478 Y-39.135 E.70501
G1 X13.945 Y-39.135 E.01673
G1 X30.372 Y-22.708 E.72868
G1 X30.372 Y-22.174 E.01673
G1 X13.411 Y-39.135 E.75234
G1 X12.878 Y-39.135 E.01673
G1 X30.372 Y-21.641 E.776
G1 X30.372 Y-21.108 E.01673
G1 X12.345 Y-39.135 E.79967
G1 X11.811 Y-39.135 E.01673
G1 X30.372 Y-20.574 E.82333
G1 X30.372 Y-20.041 E.01673
G1 X11.278 Y-39.135 E.84699
G1 X10.744 Y-39.135 E.01673
G1 X30.372 Y-19.507 E.87066
G1 X30.372 Y-18.974 E.01673
G1 X10.211 Y-39.135 E.89432
G1 X9.677 Y-39.135 E.01673
G1 X30.372 Y-18.44 E.91798
G1 X30.372 Y-17.907 E.01673
G1 X9.144 Y-39.135 E.94165
G1 X8.61 Y-39.135 E.01673
G1 X30.372 Y-17.373 E.96531
G1 X30.372 Y-16.84 E.01673
G1 X8.077 Y-39.135 E.98898
G1 X7.543 Y-39.135 E.01673
G1 X30.372 Y-16.306 E1.01264
G1 X30.372 Y-15.773 E.01673
G1 X7.01 Y-39.135 E1.0363
G1 X6.476 Y-39.135 E.01673
G1 X30.372 Y-15.239 E1.05997
G1 X30.372 Y-14.706 E.01673
G1 X5.943 Y-39.135 E1.08363
G1 X5.409 Y-39.135 E.01673
G1 X30.372 Y-14.172 E1.10729
G1 X30.372 Y-13.639 E.01673
G1 X4.876 Y-39.135 E1.13096
G1 X4.343 Y-39.135 E.01673
G1 X30.372 Y-13.106 E1.15462
G1 X30.372 Y-12.572 E.01673
G1 X3.809 Y-39.135 E1.17828
G1 X3.276 Y-39.135 E.01673
G1 X30.372 Y-12.039 E1.20195
G1 X30.372 Y-11.505 E.01673
G1 X2.742 Y-39.135 E1.22561
G1 X2.209 Y-39.135 E.01673
G1 X30.372 Y-10.972 E1.24927
G1 X30.372 Y-10.438 E.01673
G1 X1.675 Y-39.135 E1.27294
G1 X1.142 Y-39.135 E.01673
G1 X30.372 Y-9.905 E1.2966
G1 X30.372 Y-9.371 E.01673
G1 X.608 Y-39.135 E1.32026
G1 X.075 Y-39.135 E.01673
G1 X30.372 Y-8.838 E1.34393
G1 X30.372 Y-8.304 E.01673
G1 X-.459 Y-39.135 E1.36759
G1 X-.992 Y-39.135 E.01673
G1 X30.372 Y-7.771 E1.39125
G1 X30.372 Y-7.237 E.01673
G1 X-1.526 Y-39.135 E1.41492
G1 X-2.059 Y-39.135 E.01673
G1 X30.372 Y-6.704 E1.43858
G1 X30.372 Y-6.17 E.01673
G1 X-2.593 Y-39.135 E1.46225
G1 X-3.126 Y-39.135 E.01673
G1 X30.372 Y-5.637 E1.48591
G1 X30.372 Y-5.104 E.01673
G1 X-3.659 Y-39.135 E1.50957
G1 X-4.193 Y-39.135 E.01673
G1 X30.372 Y-4.57 E1.53324
G1 X30.372 Y-4.037 E.01673
G1 X-4.726 Y-39.135 E1.5569
G1 X-5.26 Y-39.135 E.01673
G1 X30.372 Y-3.503 E1.58056
G1 X30.372 Y-2.97 E.01673
G1 X-5.793 Y-39.135 E1.60423
G1 X-6.327 Y-39.135 E.01673
G1 X30.372 Y-2.436 E1.62789
G1 X30.372 Y-1.903 E.01673
G1 X-6.86 Y-39.135 E1.65155
G1 X-7.394 Y-39.135 E.01673
G1 X30.372 Y-1.369 E1.67522
G1 X30.372 Y-.836 E.01673
G1 X-7.927 Y-39.135 E1.69888
G1 X-8.461 Y-39.135 E.01673
G1 X30.372 Y-.302 E1.72254
G1 X30.372 Y.231 E.01673
G1 X-8.994 Y-39.135 E1.74621
G1 X-9.528 Y-39.135 E.01673
G1 X30.372 Y.765 E1.76987
G1 X30.372 Y1.298 E.01673
G1 X-10.061 Y-39.135 E1.79353
G1 X-10.595 Y-39.135 E.01673
G1 X30.372 Y1.832 E1.8172
G1 X30.372 Y2.365 E.01673
G1 X-11.128 Y-39.135 E1.84086
G1 X-11.661 Y-39.135 E.01673
G1 X30.372 Y2.898 E1.86452
G1 X30.372 Y3.432 E.01673
G1 X-12.195 Y-39.135 E1.88819
G1 X-12.728 Y-39.135 E.01673
G1 X30.372 Y3.965 E1.91185
G1 X30.372 Y4.499 E.01673
G1 X-13.262 Y-39.135 E1.93551
G1 X-13.795 Y-39.135 E.01673
G1 X30.372 Y5.032 E1.95918
G1 X30.372 Y5.566 E.01673
G1 X-14.329 Y-39.135 E1.98284
G1 X-14.862 Y-39.135 E.01673
G1 X30.372 Y6.099 E2.00651
G1 X30.372 Y6.633 E.01673
G1 X-15.396 Y-39.135 E2.03017
G1 X-15.929 Y-39.135 E.01673
G1 X30.372 Y7.166 E2.05383
G1 X30.372 Y7.7 E.01673
G1 X-16.463 Y-39.135 E2.0775
G1 X-16.996 Y-39.135 E.01673
G1 X30.372 Y8.233 E2.10116
G1 X30.372 Y8.767 E.01673
G1 X-17.53 Y-39.135 E2.12482
G1 X-18.063 Y-39.135 E.01673
G1 X30.372 Y9.3 E2.14849
G1 X30.372 Y9.834 E.01673
G1 X-18.597 Y-39.135 E2.17215
G1 X-19.13 Y-39.135 E.01673
G1 X30.372 Y10.367 E2.19581
G1 X30.372 Y10.9 E.01673
G1 X-19.663 Y-39.135 E2.21948
G1 X-20.197 Y-39.135 E.01673
G1 X30.372 Y11.434 E2.24314
G1 X30.372 Y11.967 E.01673
G1 X-20.73 Y-39.135 E2.2668
G1 X-21.264 Y-39.135 E.01673
G1 X30.372 Y12.501 E2.29047
G1 X30.372 Y13.034 E.01673
G1 X-21.797 Y-39.135 E2.31413
G1 X-22.331 Y-39.135 E.01673
G1 X30.372 Y13.568 E2.33779
G1 X30.372 Y14.101 E.01673
G1 X-22.864 Y-39.135 E2.36146
G1 X-23.398 Y-39.135 E.01673
G1 X30.372 Y14.635 E2.38512
G1 X30.372 Y15.168 E.01673
G1 X-23.931 Y-39.135 E2.40878
G1 X-24.465 Y-39.135 E.01673
G1 X30.372 Y15.702 E2.43245
G1 X30.372 Y16.235 E.01673
G1 X-24.998 Y-39.135 E2.45611
G1 X-25.532 Y-39.135 E.01673
G1 X30.372 Y16.769 E2.47978
G1 X30.372 Y17.302 E.01673
G1 X-26.065 Y-39.135 E2.50344
G1 X-26.599 Y-39.135 E.01673
G1 X30.372 Y17.836 E2.5271
G1 X30.372 Y18.369 E.01673
G1 X-27.132 Y-39.135 E2.55077
G1 X-27.665 Y-39.135 E.01673
G1 X30.372 Y18.902 E2.57443
G1 X30.372 Y19.436 E.01673
G1 X-28.199 Y-39.135 E2.59809
G1 X-28.732 Y-39.135 E.01673
G1 X30.372 Y19.969 E2.62176
G1 X30.372 Y20.503 E.01673
G1 X-29.266 Y-39.135 E2.64542
G1 X-29.799 Y-39.135 E.01673
G1 X30.372 Y21.036 E2.66908
G1 X30.372 Y21.57 E.01673
G1 X-30.333 Y-39.135 E2.69275
G1 X-30.372 Y-39.135 E.00123
G1 X-30.372 Y-38.641 E.0155
G1 X30.372 Y22.103 E2.69449
G1 X30.372 Y22.637 E.01673
G1 X-30.372 Y-38.107 E2.69449
G1 X-30.372 Y-37.574 E.01673
G1 X30.372 Y23.17 E2.69449
G1 X30.372 Y23.704 E.01673
G1 X-30.372 Y-37.041 E2.69449
G1 X-30.372 Y-36.507 E.01673
G1 X30.372 Y24.237 E2.69449
G1 X30.372 Y24.771 E.01673
G1 X-30.372 Y-35.974 E2.69449
G1 X-30.372 Y-35.44 E.01673
G1 X30.372 Y25.304 E2.69449
G1 X30.372 Y25.838 E.01673
G1 X-30.372 Y-34.907 E2.69449
G1 X-30.372 Y-34.373 E.01673
G1 X30.372 Y26.371 E2.69449
G1 X30.372 Y26.904 E.01673
G1 X-30.372 Y-33.84 E2.69449
G1 X-30.372 Y-33.306 E.01673
G1 X30.372 Y27.438 E2.69449
G1 X30.372 Y27.971 E.01673
G1 X-30.372 Y-32.773 E2.69449
G1 X-30.372 Y-32.239 E.01673
G1 X30.372 Y28.505 E2.69449
G1 X30.372 Y29.038 E.01673
G1 X-30.372 Y-31.706 E2.69449
G1 X-30.372 Y-31.172 E.01673
G1 X30.372 Y29.572 E2.69449
G1 X30.372 Y30.105 E.01673
G1 X-30.372 Y-30.639 E2.69449
G1 X-30.372 Y-30.105 E.01673
G1 X30.372 Y30.639 E2.69449
G1 X30.372 Y31.172 E.01673
G1 X-30.372 Y-29.572 E2.69449
G1 X-30.372 Y-29.039 E.01673
G1 X30.372 Y31.706 E2.69449
G1 X30.372 Y32.239 E.01673
G1 X-30.372 Y-28.505 E2.69449
G1 X-30.372 Y-27.972 E.01673
G1 X30.372 Y32.773 E2.69449
G1 X30.372 Y33.306 E.01673
G1 X-30.372 Y-27.438 E2.69449
G1 X-30.372 Y-26.905 E.01673
G1 X30.372 Y33.84 E2.69449
G1 X30.372 Y34.373 E.01673
G1 X-30.372 Y-26.371 E2.69449
G1 X-30.372 Y-25.838 E.01673
G1 X30.372 Y34.906 E2.69449
G1 X30.372 Y35.44 E.01673
G1 X-30.372 Y-25.304 E2.69449
G1 X-30.372 Y-24.771 E.01673
G1 X30.372 Y35.973 E2.69449
G1 X30.372 Y36.507 E.01673
G1 X-30.372 Y-24.237 E2.69449
G1 X-30.372 Y-23.704 E.01673
G1 X30.372 Y37.04 E2.69449
G1 X30.372 Y37.574 E.01673
G1 X-30.372 Y-23.17 E2.69449
G1 X-30.372 Y-22.637 E.01673
G1 X30.372 Y38.107 E2.69449
G1 X30.372 Y38.641 E.01673
G1 X-30.372 Y-22.103 E2.69449
G1 X-30.372 Y-21.57 E.01673
G1 X30.333 Y39.135 E2.69276
G1 X29.8 Y39.135 E.01673
G1 X-30.372 Y-21.037 E2.66909
G1 X-30.372 Y-20.503 E.01673
G1 X29.266 Y39.135 E2.64543
G1 X28.733 Y39.135 E.01673
G1 X-30.372 Y-19.97 E2.62177
G1 X-30.372 Y-19.436 E.01673
G1 X28.199 Y39.135 E2.5981
G1 X27.666 Y39.135 E.01673
G1 X-30.372 Y-18.903 E2.57444
G1 X-30.372 Y-18.369 E.01673
G1 X27.132 Y39.135 E2.55077
G1 X26.599 Y39.135 E.01673
G1 X-30.372 Y-17.836 E2.52711
G1 X-30.372 Y-17.302 E.01673
G1 X26.065 Y39.135 E2.50345
G1 X25.532 Y39.135 E.01673
G1 X-30.372 Y-16.769 E2.47978
G1 X-30.372 Y-16.235 E.01673
G1 X24.998 Y39.135 E2.45612
G1 X24.465 Y39.135 E.01673
G1 X-30.372 Y-15.702 E2.43246
G1 X-30.372 Y-15.168 E.01673
G1 X23.931 Y39.135 E2.40879
G1 X23.398 Y39.135 E.01673
G1 X-30.372 Y-14.635 E2.38513
G1 X-30.372 Y-14.101 E.01673
G1 X22.864 Y39.135 E2.36147
G1 X22.331 Y39.135 E.01673
G1 X-30.372 Y-13.568 E2.3378
G1 X-30.372 Y-13.035 E.01673
G1 X21.798 Y39.135 E2.31414
G1 X21.264 Y39.135 E.01673
G1 X-30.372 Y-12.501 E2.29048
G1 X-30.372 Y-11.968 E.01673
G1 X20.731 Y39.135 E2.26681
G1 X20.197 Y39.135 E.01673
G1 X-30.372 Y-11.434 E2.24315
G1 X-30.372 Y-10.901 E.01673
G1 X19.664 Y39.135 E2.21949
G1 X19.13 Y39.135 E.01673
G1 X-30.372 Y-10.367 E2.19582
G1 X-30.372 Y-9.834 E.01673
G1 X18.597 Y39.135 E2.17216
G1 X18.063 Y39.135 E.01673
G1 X-30.372 Y-9.3 E2.1485
G1 X-30.372 Y-8.767 E.01673
G1 X17.53 Y39.135 E2.12483
G1 X16.996 Y39.135 E.01673
G1 X-30.372 Y-8.233 E2.10117
G1 X-30.372 Y-7.7 E.01673
G1 X16.463 Y39.135 E2.07751
G1 X15.929 Y39.135 E.01673
G1 X-30.372 Y-7.166 E2.05384
G1 X-30.372 Y-6.633 E.01673
G1 X15.396 Y39.135 E2.03018
G1 X14.862 Y39.135 E.01673
G1 X-30.372 Y-6.099 E2.00651
G1 X-30.372 Y-5.566 E.01673
G1 X14.329 Y39.135 E1.98285
G1 X13.796 Y39.135 E.01673
G1 X-30.372 Y-5.033 E1.95919
G1 X-30.372 Y-4.499 E.01673
G1 X13.262 Y39.135 E1.93552
G1 X12.729 Y39.135 E.01673
G1 X-30.372 Y-3.966 E1.91186
G1 X-30.372 Y-3.432 E.01673
G1 X12.195 Y39.135 E1.8882
G1 X11.662 Y39.135 E.01673
G1 X-30.372 Y-2.899 E1.86453
G1 X-30.372 Y-2.365 E.01673
G1 X11.128 Y39.135 E1.84087
G1 X10.595 Y39.135 E.01673
G1 X-30.372 Y-1.832 E1.81721
G1 X-30.372 Y-1.298 E.01673
G1 X10.061 Y39.135 E1.79354
G1 X9.528 Y39.135 E.01673
G1 X-30.372 Y-.765 E1.76988
G1 X-30.372 Y-.231 E.01673
G1 X8.994 Y39.135 E1.74622
G1 X8.461 Y39.135 E.01673
G1 X-30.372 Y.302 E1.72255
G1 X-30.372 Y.836 E.01673
G1 X7.927 Y39.135 E1.69889
G1 X7.394 Y39.135 E.01673
G1 X-30.372 Y1.369 E1.67523
G1 X-30.372 Y1.903 E.01673
G1 X6.86 Y39.135 E1.65156
G1 X6.327 Y39.135 E.01673
G1 X-30.372 Y2.436 E1.6279
G1 X-30.372 Y2.969 E.01673
G1 X5.794 Y39.135 E1.60424
G1 X5.26 Y39.135 E.01673
G1 X-30.372 Y3.503 E1.58057
G1 X-30.372 Y4.036 E.01673
G1 X4.727 Y39.135 E1.55691
G1 X4.193 Y39.135 E.01673
G1 X-30.372 Y4.57 E1.53324
G1 X-30.372 Y5.103 E.01673
G1 X3.66 Y39.135 E1.50958
G1 X3.126 Y39.135 E.01673
G1 X-30.372 Y5.637 E1.48592
G1 X-30.372 Y6.17 E.01673
G1 X2.593 Y39.135 E1.46225
G1 X2.059 Y39.135 E.01673
G1 X-30.372 Y6.704 E1.43859
G1 X-30.372 Y7.237 E.01673
G1 X1.526 Y39.135 E1.41493
G1 X.992 Y39.135 E.01673
G1 X-30.372 Y7.771 E1.39126
G1 X-30.372 Y8.304 E.01673
G1 X.459 Y39.135 E1.3676
G1 X-.075 Y39.135 E.01673
G1 X-30.372 Y8.838 E1.34394
G1 X-30.372 Y9.371 E.01673
G1 X-.608 Y39.135 E1.32027
G1 X-1.142 Y39.135 E.01673
G1 X-30.372 Y9.905 E1.29661
G1 X-30.372 Y10.438 E.01673
G1 X-1.675 Y39.135 E1.27295
G1 X-2.208 Y39.135 E.01673
G1 X-30.372 Y10.971 E1.24928
G1 X-30.372 Y11.505 E.01673
G1 X-2.742 Y39.135 E1.22562
G1 X-3.275 Y39.135 E.01673
G1 X-30.372 Y12.038 E1.20196
G1 X-30.372 Y12.572 E.01673
G1 X-3.809 Y39.135 E1.17829
G1 X-4.342 Y39.135 E.01673
G1 X-30.372 Y13.105 E1.15463
G1 X-30.372 Y13.639 E.01673
G1 X-4.876 Y39.135 E1.13097
G1 X-5.409 Y39.135 E.01673
G1 X-30.372 Y14.172 E1.1073
G1 X-30.372 Y14.706 E.01673
G1 X-5.943 Y39.135 E1.08364
G1 X-6.476 Y39.135 E.01673
G1 X-30.372 Y15.239 E1.05997
G1 X-30.372 Y15.773 E.01673
G1 X-7.01 Y39.135 E1.03631
G1 X-7.543 Y39.135 E.01673
G1 X-30.372 Y16.306 E1.01265
G1 X-30.372 Y16.84 E.01673
G1 X-8.077 Y39.135 E.98898
G1 X-8.61 Y39.135 E.01673
G1 X-30.372 Y17.373 E.96532
G1 X-30.372 Y17.907 E.01673
G1 X-9.144 Y39.135 E.94166
G1 X-9.677 Y39.135 E.01673
G1 X-30.372 Y18.44 E.91799
G1 X-30.372 Y18.973 E.01673
G1 X-10.21 Y39.135 E.89433
G1 X-10.744 Y39.135 E.01673
G1 X-30.372 Y19.507 E.87067
G1 X-30.372 Y20.04 E.01673
G1 X-11.277 Y39.135 E.847
G1 X-11.811 Y39.135 E.01673
G1 X-30.372 Y20.574 E.82334
G1 X-30.372 Y21.107 E.01673
G1 X-12.344 Y39.135 E.79968
G1 X-12.878 Y39.135 E.01673
G1 X-30.372 Y21.641 E.77601
G1 X-30.372 Y22.174 E.01673
G1 X-13.411 Y39.135 E.75235
G1 X-13.945 Y39.135 E.01673
G1 X-30.372 Y22.708 E.72869
G1 X-30.372 Y23.241 E.01673
G1 X-14.478 Y39.135 E.70502
G1 X-15.012 Y39.135 E.01673
G1 X-30.372 Y23.775 E.68136
G1 X-30.372 Y24.308 E.01673
G1 X-15.545 Y39.135 E.6577
G1 X-16.079 Y39.135 E.01673
G1 X-30.372 Y24.842 E.63403
G1 X-30.372 Y25.375 E.01673
G1 X-16.612 Y39.135 E.61037
G1 X-17.146 Y39.135 E.01673
G1 X-30.372 Y25.909 E.5867
G1 X-30.372 Y26.442 E.01673
G1 X-17.679 Y39.135 E.56304
G1 X-18.212 Y39.135 E.01673
G1 X-30.372 Y26.975 E.53938
G1 X-30.372 Y27.509 E.01673
G1 X-18.746 Y39.135 E.51571
G1 X-19.279 Y39.135 E.01673
G1 X-30.372 Y28.042 E.49205
G1 X-30.372 Y28.576 E.01673
G1 X-19.813 Y39.135 E.46839
G1 X-20.346 Y39.135 E.01673
G1 X-30.372 Y29.109 E.44472
G1 X-30.372 Y29.643 E.01673
G1 X-20.88 Y39.135 E.42106
G1 X-21.413 Y39.135 E.01673
G1 X-30.372 Y30.176 E.3974
G1 X-30.372 Y30.71 E.01673
G1 X-21.947 Y39.135 E.37373
G1 X-22.48 Y39.135 E.01673
G1 X-30.372 Y31.243 E.35007
G1 X-30.372 Y31.777 E.01673
G1 X-23.014 Y39.135 E.32641
G1 X-23.547 Y39.135 E.01673
G1 X-30.372 Y32.31 E.30274
G1 X-30.372 Y32.844 E.01673
